X: 21211
M: 6/8
L: 1/8
K: D
[|\
[|\
d<dA e<eA | f>ed d<AB | AFD D2d/e/ | fg/f/e/d/ (fed) |\
d2A e>fg | f>ed d>cB | A>BA A<DE | F<AF {F}E2D |]


